symbols/web/event_busy/materialsymbolsoutlined/event_busy_wght600fill1_40px.svg

<svg xmlns="http://www.w3.org/2000/svg" height="40" width="40"><path d="m16.083 31.125-2.208-2.208L17.833 25l-3.958-3.917 2.208-2.208L20 22.833l3.917-3.958 2.208 2.208L22.167 25l3.958 3.917-2.208 2.208L20 27.167ZM8 37.333q-1.5 0-2.583-1.083-1.084-1.083-1.084-2.583V9.125q0-1.542 1.084-2.625Q6.5 5.417 8 5.417h2.125v-2.75H13.5v2.75h13v-2.75h3.375v2.75H32q1.5 0 2.583 1.083 1.084 1.083 1.084 2.625v24.542q0 1.5-1.084 2.583Q33.5 37.333 32 37.333Zm0-3.666h24V16.375H8v17.292Z"/></svg>

<svg xmlns="http://www.w3.org/2000/svg" height="40" width="40"><path d="M16.083 31.125 13.875 28.917 17.833 25 13.875 21.083 16.083 18.875 20 22.833 23.917 18.875 26.125 21.083 22.167 25 26.125 28.917 23.917 31.125 20 27.167ZM8 37.333Q6.5 37.333 5.417 36.25Q4.333 35.167 4.333 33.667V9.125Q4.333 7.583 5.417 6.5Q6.5 5.417 8 5.417H10.125V2.667H13.5V5.417H26.5V2.667H29.875V5.417H32Q33.5 5.417 34.583 6.5Q35.667 7.583 35.667 9.125V33.667Q35.667 35.167 34.583 36.25Q33.5 37.333 32 37.333ZM8 33.667H32Q32 33.667 32 33.667Q32 33.667 32 33.667V16.375H8V33.667Q8 33.667 8 33.667Q8 33.667 8 33.667Z"/></svg>
